packages/icons/svg/Instruction_Hygiene_Gel_64px.svg

<svg xmlns="http://www.w3.org/2000/svg" viewBox="0 0 64 64"><path d="M54.57 43.1a4.91 4.91 0 00-6.49-2.49L40.9 43.8a4.75 4.75 0 00-4.65-3.8h-13a9.52 9.52 0 00-3.93.85l-9.44 4.28a1.5 1.5 0 101.24 2.74l9.42-4.29a6.57 6.57 0 012.69-.58h13a1.75 1.75 0 010 3.5H30.5a1.5 1.5 0 000 3h5.75a4.73 4.73 0 003.93-2.09l9.12-4.06a1.92 1.92 0 011.47 0 1.85 1.85 0 011.06 1 1.92 1.92 0 01-1 2.53l-19.26 8.56a6.52 6.52 0 01-2.64.56H17a1.5 1.5 0 000 3h11.93a9.49 9.49 0 003.86-.82l19.29-8.59a4.91 4.91 0 002.49-6.49zM32 32a10 10 0 0010-10c0-7-8.54-16.17-8.9-16.55a1.55 1.55 0 00-2.2 0C30.54 5.86 22 15.08 22 22a10 10 0 0010 10zm0-23.24c2.64 3.12 7 9.13 7 13.27a7 7 0 01-14 0c0-4.14 4.36-10.15 7-13.27z"/><path d="M32 27.26a1 1 0 000-2A3.25 3.25 0 0128.75 22a1 1 0 00-2 0A5.25 5.25 0 0032 27.26z"/></svg>

<svg xmlns="http://www.w3.org/2000/svg" viewBox="0 0 64 64"><defs></defs><g id="Icon"><path  d="M54.57,43.1a4.91,4.91,0,0,0-6.49-2.49L40.9,43.8A4.75,4.75,0,0,0,36.25,40h-13a9.52,9.52,0,0,0-3.93.85L9.88,45.13a1.5,1.5,0,1,0,1.24,2.74l9.42-4.29A6.57,6.57,0,0,1,23.23,43h13a1.75,1.75,0,0,1,0,3.5H30.5a1.5,1.5,0,0,0,0,3h5.75a4.73,4.73,0,0,0,3.93-2.09l9.12-4.06a1.92,1.92,0,0,1,1.47,0,1.85,1.85,0,0,1,1.06,1,1.92,1.92,0,0,1-1,2.53L31.57,55.44a6.52,6.52,0,0,1-2.64.56H17a1.5,1.5,0,0,0,0,3H28.93a9.49,9.49,0,0,0,3.86-.82l19.29-8.59A4.91,4.91,0,0,0,54.57,43.1Z"/><path  d="M32,32A10,10,0,0,0,42,22c0-7-8.54-16.17-8.9-16.55a1.55,1.55,0,0,0-2.2,0C30.54,5.86,22,15.08,22,22A10,10,0,0,0,32,32ZM32,8.76c2.64,3.12,7,9.13,7,13.27a7,7,0,0,1-14,0C25,17.89,29.36,11.88,32,8.76Z"/><path  d="M32,27.26a1,1,0,0,0,0-2A3.25,3.25,0,0,1,28.75,22a1,1,0,0,0-2,0A5.25,5.25,0,0,0,32,27.26Z"/></g></svg>
